src/assets/images/home-icon-w.svg

<?xml version="1.0" encoding="UTF-8"?>
<svg width="24px" height="21px" viewBox="0 0 24 21" version="1.1" xmlns="http://www.w3.org/2000/svg" xmlns:xlink="http://www.w3.org/1999/xlink">
    <!-- Generator: Sketch 55.2 (78181) - https://sketchapp.com -->
    <title>home-page</title>
    <desc>Created with Sketch.</desc>
    <g id="Symbols" stroke="none" stroke-width="1" fill="none" fill-rule="evenodd">
        <g id="Icons/24px/HomeW" transform="translate(0.000000, -1.000000)" fill="#FFFFFF">
            <g id="home-page" transform="translate(0.000000, 1.000000)">
                <path d="M3.14902642,20.4651429 C3.14902642,20.4651429 3.12857143,20.9828571 3.63428571,20.9828571 C4.26342857,20.9828571 9.47228571,20.976 9.47228571,20.976 L9.48085714,16.1922857 C9.48085714,16.1922857 9.39857143,15.4037143 10.164,15.4037143 L12.5862857,15.4037143 C13.4914286,15.4037143 13.4357143,16.1922857 13.4357143,16.1922857 L13.4254286,20.9605714 C13.4254286,20.9605714 18.3642857,20.9605714 19.14,20.9605714 C19.782,20.9605714 19.7528571,20.316 19.7528571,20.316 L19.7528571,11.4968571 L11.6991429,4.33285714 L3.14902642,11.4968571 C3.14902642,11.4968571 3.14902642,20.4651429 3.14902642,20.4651429 Z" id="Path"></path>
                <path d="M0,10.83 C0,10.83 0.726,12.168 2.30914286,10.83 L11.7702857,2.826 L20.6408571,10.7802857 C22.4734286,12.102 23.16,10.7802857 23.16,10.7802857 L11.7702857,0.462857143 L0,10.83 Z" id="Path"></path>
                <polygon id="Path" points="20.4257143 2.80714286 18.144 2.80714286 18.1534286 5.574 20.4257143 7.50171429"></polygon>
            </g>
        </g>
    </g>
</svg>

<?xml version="1.0" encoding="UTF-8"?>
<svg version="1.1" viewBox="0 0 24 21" xmlns="http://www.w3.org/2000/svg">
<title>home-page</title>
<desc>Created with Sketch.</desc>
<g fill="none" fill-rule="evenodd">
<g transform="translate(0 -1)" fill="#fff">
<g transform="translate(0 1)">
<path d="m3.149 20.465s-0.020455 0.51771 0.48526 0.51771c0.62914 0 5.838-0.0068571 5.838-0.0068571l0.0085714-4.7837s-0.082286-0.78857 0.68314-0.78857h2.4223c0.90514 0 0.84943 0.78857 0.84943 0.78857l-0.010286 4.7683h5.7146c0.642 0 0.61286-0.64457 0.61286-0.64457v-8.8191l-8.0537-7.164-8.5501 7.164v8.9683z"/>
<path d="m0 10.83s0.726 1.338 2.3091 0l9.4611-8.004 8.8706 7.9543c1.8326 1.3217 2.5191 0 2.5191 0l-11.39-10.317-11.77 10.367z"/>
<polygon points="20.426 2.8071 18.144 2.8071 18.153 5.574 20.426 7.5017"/>
</g>
</g>
</g>
</svg>
